FINK
CUT[ES GING EIN MAEDCHEN IN DIE STADT]
REG[Europa, Mitteleuropa, Deutschland]
KEY[F0227  16  C 3/4]
MEL[-5_  -5_-5_-3__.-5_  -4_-4_-2__0_
    -2_  -4_.-3-2_-6_-5_-4_  -3_1_-5__0_
    -5_  -5_-5_-3__.-5_  -4_-4_-2__0_
    -2_  -4_.-3-2_-6_-5_--7_  -1__0_
    -3_-3_-3_  -5_-5_1__.-5_  -6_-6_2__.
    1_  -7_.-5-5_4_3_2_  1__0__. //] >>
FCT[Scherz - Lied, Liebe]
